X:74
T:Over the Hills and Far Away
Z:Jack Campin, http://www.campin.me.uk/
F:Jack Campin's Nine-Note Tunebook
% last edit 03-02-2013
S:Greenwich traditional music session
M:C
L:1/8
Q:1/4=120
K:AMin
  GABA GABA|G2E2 E3D|GABA GABA|c2A2    A4 |
  GABA GABA|G2E2 c4 |E2DC D2B2|c2A2 [1 A4:|\
                                    [2 A3:|
c|d3c  B2BA|G2E2 E3c|d2dc B2AB|c2A2    A3
c|d2dc B2BA|G2E2 c4 |E2DC D2B2|c2A2 [1 A3:|\
                                    [2 A4|]

